SVG/buysellads.svg

<?xml version="1.0" encoding="utf-8"?>
<!-- Generated by IcoMoon.io -->
<!DOCTYPE svg PUBLIC "-//W3C//DTD SVG 1.1//EN" "http://www.w3.org/Graphics/SVG/1.1/DTD/svg11.dtd">
<svg version="1.1" xmlns="http://www.w3.org/2000/svg" xmlns:xlink="http://www.w3.org/1999/xlink" width="12" height="14" viewBox="0 0 12 14">
<path fill="#444444" d="M7.148 8.484h-2.297l1.148-4.305zM7.82 11h2.43l-2.531-8h-3.438l-2.531 8h2.43l2.992-2.453zM12 3.25v7.5q0 0.922-0.664 1.586t-1.586 0.664h-7.5q-0.922 0-1.586-0.664t-0.664-1.586v-7.5q0-0.922 0.664-1.586t1.586-0.664h7.5q0.922 0 1.586 0.664t0.664 1.586z"></path>
</svg>

<svg xmlns="http://www.w3.org/2000/svg" viewBox="0 0 12 14"><path d="M7.148 8.484H4.85L6 4.18zM7.82 11h2.43L7.72 3H4.28l-2.53 8h2.43l2.992-2.453zM12 3.25v7.5q0 .922-.664 1.586T9.75 13h-7.5q-.922 0-1.586-.664T0 10.75v-7.5q0-.922.664-1.586T2.25 1h7.5q.922 0 1.586.664T12 3.25z" /></svg>
